X: 89
T: POLKA: Kerry Cow
C: C: Trad.; S: Brendan & Séamus Begley
C: Set Leaders: Tania, Anton, Sophie
Z: Anton Zille ed., Oleg Naumov arr.; Northcregg at The Session
N: https://thesession.org/members/26966/sets/92029
R: Polka
M: 2/4
L: 1/8
Q: 1/4=140
K: Dmaj
|:"D"A>B AG|"D"FA dF|"G"G>A GF|"A"EF G/F/E|
"D"A>B AG|"D"FA de/d/|"G"cA "A"GE|1 "D"D2 DB:|2 "D"D2 DA||
"D"d>e fd|"D"cA A2|"G"BG GA/B/|"A"cA A2|
"D"d>e fd|"D"cA Ad|"G"BG "A"AF|"D"D2 DB/c/|
"D"d>e fd|"D"cA Ad|"G"BG GA/B/|"A"cA AB/c/|
"D"d>e fd|"D"cA AB|"G"BA "A"GE|"D"DA AB||

